src/topics/icons/hack.svg

<svg height="381" preserveAspectRatio="xMidYMid" viewBox="0 0 256 381" width="256" xmlns="http://www.w3.org/2000/svg"><path d="m131.015 126.065 117.088.003-117.088 115.396z" fill="#fff"/><g fill="#868686"><path d="m.002 256.489h116.672l-116.672 118.466z"/><path d="m.001 119.581 121.947-119.581.061 121.501-122.008 121.684z"/><path d="m256.001 131.733v124.388l-124.981 124.067v-124.356z"/></g><path d="m121.909 246.908-113.513-.003 113.513-113.585z" fill="#f7852f"/></svg>

<?xml version="1.0" encoding="UTF-8" standalone="no"?>
<svg width="256px" height="381px" viewBox="0 0 256 381" version="1.1" xmlns="http://www.w3.org/2000/svg" xmlns:xlink="http://www.w3.org/1999/xlink" preserveAspectRatio="xMidYMid">
	<g>
		<path d="M131.015,126.065 L248.103,126.068 L131.015,241.464 L131.015,126.065" fill="#FFFFFF"></path>
		<path d="M0.002,256.489 L116.674,256.489 L0.002,374.955 L0.002,256.489" fill="#868686"></path>
		<path d="M0.001,119.581 L121.948,0 L122.009,121.501 L0.001,243.185 L0.001,119.581" fill="#868686"></path>
		<path d="M256.001,131.733 L256.001,256.121 L131.02,380.188 L131.02,255.832 L256.001,131.733 L256.001,131.733 Z" fill="#868686"></path>
		<path d="M121.909,246.908 L8.396,246.905 L121.909,133.32 L121.909,246.908" fill="#F7852F"></path>
	</g>
</svg>
